;FLAVOR:Marlin
;TIME:620
;Filament used: 0.275321m
;Layer height: 0.16
;MINX:97.053
;MINY:101
;MINZ:0.2
;MAXX:137.723
;MAXY:134
;MAXZ:4.92
;TARGET_MACHINE.NAME:Creality Ender-3
;Generated with Cura_SteamEngine 5.10.1
M140 S55
M105
M190 S55
M104 S215
M105
M109 S215
; Ender 3 Custom Start G-code
G92 E0 ; Reset Extruder
G28 ; Home all axes
G1 Z2.0 F3000 ; Move Z Axis up little to prevent scratching of Heat Bed
G1 X0.1 Y20 Z0.3 F5000.0 ; Move to start position
G1 X0.1 Y200.0 Z0.3 F1500.0 E15 ; Draw the first line
G1 X0.4 Y200.0 Z0.3 F5000.0 ; Move to side a little
G1 X0.4 Y20 Z0.3 F1500.0 E30 ; Draw the second line
G92 E0 ; Reset Extruder
G1 Z2.0 F3000 ; Move Z Axis up little to prevent scratching of Heat Bed
G1 X5 Y20 Z0.3 F5000.0 ; Move over to prevent blob squish
M82 ;absolute extrusion mode
G92 E0
G92 E0
G1 F2700 E-5
;LAYER_COUNT:28
;LAYER:0
M107
G0 F6000 X101.846 Y106.189 Z0.2
;TYPE:SKIRT
G1 F2700 E0
G1 F1200 X103.083 Y105.006 E0.05693
G1 X103.446 Y104.679 E0.07318
G1 X103.717 Y104.452 E0.08494
G1 X104.5 Y103.872 E0.11735
G1 X105.33 Y103.364 E0.14971
G1 X106.137 Y102.96 E0.17973
G1 X107.346 Y102.5 E0.22275
G1 X108.124 Y102.266 E0.24977
G1 X108.798 Y102.084 E0.27299
G1 X109.277 Y101.967 E0.28939
G1 X109.691 Y101.881 E0.30346
G1 X110.285 Y101.774 E0.32353
G1 X110.937 Y101.67 E0.34549
G1 X112.394 Y101.407 E0.39473
G1 X112.794 Y101.354 E0.40816
G1 X113.87 Y101.168 E0.44447
G1 X114.488 Y101.08 E0.46524
G1 X114.614 Y101.08 E0.46943
G1 X115.378 Y101.015 E0.49493
G1 X116.035 Y101 E0.51679
G1 X126.027 Y101 E0.84912
G1 X126.907 Y101.013 E0.87839
G1 X127.879 Y101.072 E0.91078
G1 X128.842 Y101.218 E0.94318
G1 X129.789 Y101.449 E0.9756
G1 X130.677 Y101.749 E1.00677
G1 X131.569 Y102.139 E1.03915
G1 X132.452 Y102.626 E1.07269
G1 X133.203 Y103.128 E1.10274
G1 X134.018 Y103.786 E1.13758
G1 X134.716 Y104.464 E1.16994
G1 X135.352 Y105.201 E1.20232
G1 X135.922 Y105.991 E1.23472
G1 X136.384 Y106.767 E1.26476
G1 X136.838 Y107.709 E1.29954
G1 X137.167 Y108.587 E1.33072
G1 X137.436 Y109.559 E1.36427
G1 X137.613 Y110.525 E1.39693
G1 X137.708 Y111.649 E1.43445
G1 X137.723 Y112.323 E1.45687
G1 X137.722 Y122.416 E1.79257
G1 X137.71 Y123.177 E1.81788
G1 X137.652 Y124.15 E1.8503
G1 X137.506 Y125.113 E1.8827
G1 X137.275 Y126.06 E1.91512
G1 X136.962 Y126.982 E1.9475
G1 X136.57 Y127.873 E1.97988
G1 X136.118 Y128.695 E2.01108
G1 X135.556 Y129.533 E2.04464
G1 X134.966 Y130.263 E2.07586
G1 X134.263 Y130.989 E2.10947
G1 X133.527 Y131.625 E2.14182
G1 X132.737 Y132.195 E2.17422
G1 X131.961 Y132.658 E2.20428
G1 X131.021 Y133.111 E2.23898
G1 X130.108 Y133.453 E2.27141
G1 X129.17 Y133.712 E2.30378
G1 X128.204 Y133.889 E2.33644
G1 X127.068 Y133.985 E2.37436
G1 X126.393 Y134 E2.39681
G1 X116.272 Y133.999 E2.73344
G1 X115.545 Y133.987 E2.75762
G1 X114.708 Y133.942 E2.7855
G1 X113.499 Y133.762 E2.82616
G1 X110.667 Y133.142 E2.92258
G1 X110.451 Y133.084 E2.93002
G1 X109.439 Y132.869 E2.96443
G1 X108.556 Y132.644 E2.99474
G1 X107.862 Y132.43 E3.01889
G1 X107.296 Y132.232 E3.03884
G1 X106.607 Y131.965 E3.06341
G1 X106.194 Y131.781 E3.07845
G1 X105.545 Y131.469 E3.1024
G1 X104.863 Y131.094 E3.12829
G1 X104.284 Y130.738 E3.15089
G1 X103.736 Y130.372 E3.17281
G1 X103.323 Y130.071 E3.18981
G1 X102.965 Y129.792 E3.20491
G1 X102.284 Y129.212 E3.23466
G1 X101.581 Y128.538 E3.26705
G1 X101.264 Y128.204 E3.28237
G1 X100.786 Y127.662 E3.3064
G1 X100.422 Y127.22 E3.32545
G1 X100.02 Y126.695 E3.34744
G1 X99.634 Y126.139 E3.36995
G1 X99.305 Y125.618 E3.39044
G1 X99.113 Y125.285 E3.40323
G1 X98.805 Y124.703 E3.42513
G1 X98.508 Y124.097 E3.44758
G1 X98.119 Y123.2 E3.4801
G1 X97.946 Y122.732 E3.49669
G1 X97.739 Y122.105 E3.51865
G1 X97.599 Y121.627 E3.53522
G1 X97.471 Y121.123 E3.55251
G1 X97.312 Y120.361 E3.5784
G1 X97.17 Y119.453 E3.60897
G1 X97.111 Y118.926 E3.62661
G1 X97.066 Y118.227 E3.64991
G1 X97.053 Y117.525 E3.67326
G1 X97.063 Y116.94 E3.69272
G1 X97.121 Y115.983 E3.72461
G1 X97.183 Y115.433 E3.74302
G1 X97.26 Y114.908 E3.76066
G1 X97.422 Y114.086 E3.78853
G1 X97.628 Y113.277 E3.8163
G1 X97.824 Y112.649 E3.83818
G1 X98.032 Y112.048 E3.85933
G1 X98.428 Y111.06 E3.89473
G1 X98.718 Y110.467 E3.91669
G1 X99.037 Y109.86 E3.93949
G1 X99.549 Y108.99 E3.97307
G1 X99.778 Y108.644 E3.98687
G1 X100.171 Y108.091 E4.00943
G1 X100.478 Y107.698 E4.02602
G1 X100.924 Y107.159 E4.04929
G1 X101.42 Y106.615 E4.07377
G1 X101.846 Y106.189 E4.09381
G0 F6000 X102.122 Y106.478
G1 F1200 X103.351 Y105.303 E4.15037
G1 X103.714 Y104.976 E4.16662
G1 X103.745 Y104.959 E4.16779
G1 X103.956 Y104.773 E4.17715
G1 X104.709 Y104.213 E4.20836
G1 X105.509 Y103.722 E4.23958
G1 X106.316 Y103.318 E4.26959
G1 X107.488 Y102.874 E4.31128
G1 X108.228 Y102.652 E4.33697
G1 X108.893 Y102.473 E4.35988
G1 X109.359 Y102.359 E4.37584
G1 X109.762 Y102.275 E4.38953
G1 X110.348 Y102.169 E4.40934
G1 X111.008 Y102.064 E4.43156
G1 X112.465 Y101.801 E4.48081
G1 X112.862 Y101.748 E4.49413
G1 X113.926 Y101.564 E4.53004
G1 X114.544 Y101.476 E4.5508
G1 X114.614 Y101.482 E4.55314
G1 X115.412 Y101.414 E4.57978
G1 X116.044 Y101.4 E4.6008
G1 X126.021 Y101.4 E4.93264
G1 X126.883 Y101.412 E4.96131
G1 X127.82 Y101.468 E4.99253
G1 X128.748 Y101.607 E5.02374
G1 X129.661 Y101.828 E5.05499
G1 X130.517 Y102.116 E5.08503
G1 X131.409 Y102.506 E5.11741
G1 X132.23 Y102.959 E5.14859
G1 X132.981 Y103.461 E5.17864
G1 X133.74 Y104.073 E5.21107
G1 X134.414 Y104.726 E5.24228
G1 X135.028 Y105.435 E5.27347
G1 X135.578 Y106.196 E5.3047
G1 X136.04 Y106.972 E5.33474
G1 X136.463 Y107.849 E5.36713
G1 X136.792 Y108.727 E5.39831
G1 X137.043 Y109.632 E5.42955
G1 X137.214 Y110.559 E5.4609
G1 X137.309 Y111.683 E5.49842
G1 X137.323 Y112.323 E5.51971
G1 X137.322 Y122.41 E5.8552
G1 X137.311 Y123.154 E5.87995
G1 X137.256 Y124.091 E5.91117
G1 X137.117 Y125.019 E5.94238
G1 X136.896 Y125.932 E5.97362
G1 X136.596 Y126.821 E6.00483
G1 X136.219 Y127.68 E6.03603
G1 X135.767 Y128.502 E6.06723
G1 X135.244 Y129.282 E6.09847
G1 X134.678 Y129.985 E6.12849
G1 X134.001 Y130.687 E6.16092
G1 X133.293 Y131.301 E6.19209
G1 X132.532 Y131.851 E6.22332
G1 X131.756 Y132.314 E6.25338
G1 X130.88 Y132.737 E6.28573
G1 X130.001 Y133.068 E6.31697
G1 X129.097 Y133.319 E6.34818
G1 X128.17 Y133.49 E6.37953
G1 X127.034 Y133.586 E6.41745
G1 X126.393 Y133.6 E6.43877
G1 X116.278 Y133.599 E6.7752
G1 X115.566 Y133.588 E6.79888
G1 X114.767 Y133.546 E6.82549
G1 X113.585 Y133.371 E6.86524
G1 X110.753 Y132.751 E6.96166
G1 X110.54 Y132.694 E6.96899
G1 X109.537 Y132.481 E7.0031
G1 X108.674 Y132.262 E7.03271
G1 X107.994 Y132.052 E7.05638
G1 X107.44 Y131.859 E7.07589
G1 X106.77 Y131.6 E7.09978
G1 X106.367 Y131.42 E7.11446
G1 X105.738 Y131.118 E7.13767
G1 X105.056 Y130.743 E7.16356
G1 X104.506 Y130.406 E7.18501
G1 X103.971 Y130.048 E7.20642
G1 X103.569 Y129.756 E7.22295
G1 X103.224 Y129.487 E7.2375
G1 X102.561 Y128.923 E7.26645
G1 X101.858 Y128.249 E7.29884
G1 X101.564 Y127.939 E7.31305
G1 X101.095 Y127.408 E7.33662
G1 X100.74 Y126.977 E7.35519
G1 X100.338 Y126.452 E7.37718
G1 X99.972 Y125.926 E7.39849
G1 X99.652 Y125.418 E7.41846
G1 X99.46 Y125.085 E7.43125
G1 X99.164 Y124.527 E7.45226
G1 X98.875 Y123.938 E7.47408
G1 X98.494 Y123.061 E7.50588
G1 X98.326 Y122.607 E7.52198
G1 X98.123 Y121.992 E7.54352
G1 X97.987 Y121.528 E7.5596
G1 X97.863 Y121.041 E7.57632
G1 X97.704 Y120.279 E7.60221
G1 X97.568 Y119.408 E7.63153
G1 X97.509 Y118.881 E7.64917
G1 X97.466 Y118.219 E7.67123
G1 X97.453 Y117.531 E7.69412
G1 X97.462 Y116.964 E7.71298
G1 X97.519 Y116.027 E7.7442
G1 X97.579 Y115.491 E7.76214
G1 X97.656 Y114.966 E7.77979
G1 X97.81 Y114.184 E7.8063
G1 X98.01 Y113.396 E7.83334
G1 X98.202 Y112.78 E7.8548
G1 X98.41 Y112.179 E7.87595
G1 X98.787 Y111.236 E7.90973
G1 X99.072 Y110.653 E7.93131
G1 X99.382 Y110.063 E7.95348
G1 X99.883 Y109.211 E7.98635
G1 X100.112 Y108.865 E8.00015
G1 X100.486 Y108.337 E8.02167
G1 X100.786 Y107.953 E8.03788
G1 X101.22 Y107.429 E8.06051
G1 X101.716 Y106.885 E8.085
G1 X102.122 Y106.478 E8.10412
G0 F6000 X102.398 Y106.767
G1 F1200 X103.619 Y105.6 E8.16029
G1 X103.982 Y105.273 E8.17654
G1 X103.987 Y105.279 E8.1768
G1 X104.195 Y105.094 E8.18606
G1 X104.919 Y104.554 E8.2161
G1 X105.688 Y104.08 E8.24615
G1 X106.495 Y103.676 E8.27616
G1 X107.603 Y103.257 E8.31556
G1 X108.332 Y103.038 E8.34088
G1 X108.988 Y102.862 E8.36347
G1 X109.441 Y102.751 E8.37898
G1 X109.833 Y102.669 E8.3923
G1 X110.411 Y102.564 E8.41184
G1 X111.079 Y102.458 E8.43434
G1 X112.536 Y102.195 E8.48358
G1 X112.927 Y102.142 E8.4967
G1 X113.982 Y101.96 E8.53231
G1 X114.6 Y101.872 E8.55307
G1 X114.601 Y101.885 E8.55351
G1 X115.446 Y101.813 E8.58171
G1 X116.053 Y101.8 E8.60191
G1 X126.016 Y101.8 E8.93328
G1 X126.86 Y101.811 E8.96135
G1 X127.762 Y101.864 E8.99141
G1 X128.655 Y101.996 E9.02143
G1 X129.533 Y102.207 E9.05146
G1 X130.389 Y102.495 E9.0815
G1 X131.216 Y102.857 E9.11153
G1 X132.008 Y103.292 E9.14158
G1 X132.759 Y103.794 E9.17163
G1 X133.462 Y104.361 E9.20167
G1 X134.112 Y104.988 E9.2317
G1 X134.704 Y105.67 E9.26174
G1 X135.234 Y106.401 E9.29177
G1 X135.696 Y107.177 E9.32181
G1 X136.089 Y107.99 E9.35184
G1 X136.407 Y108.835 E9.38187
G1 X136.65 Y109.705 E9.41192
G1 X136.815 Y110.593 E9.44196
G1 X136.91 Y111.717 E9.47948
G1 X136.923 Y112.323 E9.49964
G1 X136.922 Y122.404 E9.83493
G1 X136.912 Y123.131 E9.85911
G1 X136.86 Y124.033 E9.88916
G1 X136.728 Y124.926 E9.91919
G1 X136.517 Y125.805 E9.94925
G1 X136.23 Y126.661 E9.97928
G1 X135.868 Y127.488 E10.00931
G1 X135.434 Y128.28 E10.03935
G1 X134.932 Y129.031 E10.06939
G1 X134.366 Y129.734 E10.09941
G1 X133.739 Y130.385 E10.12947
G1 X133.058 Y130.977 E10.15948
G1 X132.327 Y131.507 E10.18951
G1 X131.551 Y131.97 E10.21957
G1 X130.738 Y132.363 E10.2496
G1 X129.893 Y132.683 E10.27966
G1 X129.024 Y132.926 E10.30967
G1 X128.136 Y133.091 E10.33971
G1 X127 Y133.187 E10.37763
G1 X126.393 Y133.2 E10.39782
G1 X116.284 Y133.199 E10.73405
G1 X115.586 Y133.189 E10.75726
G1 X114.825 Y133.15 E10.78261
G1 X113.67 Y132.98 E10.82144
G1 X110.857 Y132.365 E10.91721
G1 X110.635 Y132.305 E10.92486
G1 X109.635 Y132.093 E10.95886
G1 X108.792 Y131.88 E10.98778
G1 X108.125 Y131.674 E11.01099
G1 X107.584 Y131.486 E11.03004
G1 X106.932 Y131.234 E11.05329
G1 X106.54 Y131.06 E11.06756
G1 X105.931 Y130.767 E11.09004
G1 X105.249 Y130.392 E11.11592
G1 X104.728 Y130.073 E11.13624
G1 X104.206 Y129.724 E11.15713
G1 X103.815 Y129.441 E11.17318
G1 X103.483 Y129.182 E11.18718
G1 X102.838 Y128.634 E11.21533
G1 X102.135 Y127.96 E11.24773
G1 X101.864 Y127.674 E11.26083
G1 X101.403 Y127.153 E11.28397
G1 X101.057 Y126.734 E11.30204
G1 X100.666 Y126.224 E11.32342
G1 X100.31 Y125.712 E11.34416
G1 X99.998 Y125.218 E11.36359
G1 X99.813 Y124.898 E11.37588
G1 X99.523 Y124.351 E11.39648
G1 X99.242 Y123.779 E11.41767
G1 X98.861 Y122.902 E11.44948
G1 X98.706 Y122.482 E11.46437
G1 X98.507 Y121.879 E11.48549
G1 X98.375 Y121.429 E11.50108
G1 X98.251 Y120.942 E11.5178
G1 X98.099 Y120.218 E11.5424
G1 X97.966 Y119.363 E11.57118
G1 X97.907 Y118.836 E11.58882
G1 X97.866 Y118.211 E11.60965
G1 X97.853 Y117.537 E11.63207
G1 X97.861 Y116.988 E11.65034
G1 X97.916 Y116.072 E11.68086
G1 X97.975 Y115.549 E11.69836
G1 X98.052 Y115.024 E11.71601
G1 X98.198 Y114.282 E11.74116
G1 X98.392 Y113.515 E11.76748
G1 X98.58 Y112.91 E11.78855
G1 X98.781 Y112.327 E11.80906
G1 X99.147 Y111.411 E11.84187
G1 X99.426 Y110.839 E11.86303
G1 X99.727 Y110.266 E11.88456
G1 X100.217 Y109.432 E11.91673
G1 X100.446 Y109.086 E11.93053
G1 X100.802 Y108.583 E11.95103
G1 X101.094 Y108.208 E11.96684
G1 X101.516 Y107.698 E11.98886
G1 X102 Y107.167 E12.01275
G1 X102.398 Y106.767 E12.03152
G1 F2700 E7.03152
G0 F6000 X109.252 Y113.96
G0 X109.562 Y114.292
G1 F2700 E12.03152
G1 F1200 X109.848 Y114.036 E12.04429
G1 X110.441 Y113.581 E12.06915
G1 X110.447 Y113.576 E12.06941
G1 X110.788 Y113.293 E12.08415
G1 X110.854 Y113.187 E12.0883
G1 X110.858 Y113.13 E12.0902
G1 X111.668 Y112.901 E12.1182
G1 X112.021 Y112.829 E12.13018
G1 X112.412 Y112.785 E12.14327
G1 X112.749 Y112.775 E12.15448
G1 X113.96 Y112.775 E12.19476
G1 X113.973 Y112.809 E12.19597
G1 X114.069 Y112.874 E12.19982
G1 X114.332 Y112.955 E12.20898
G1 X114.391 Y112.964 E12.21096
G1 X114.548 Y112.964 E12.21618
G1 X114.551 Y112.975 E12.21656
G1 X112.761 Y112.975 E12.2761
G1 X112.429 Y112.985 E12.28715
G1 X112.412 Y112.986 E12.28771
G1 X112.072 Y113.026 E12.2991
G1 X112.056 Y113.029 E12.29964
G1 X111.723 Y113.096 E12.31094
G1 X111.708 Y113.099 E12.31145
G1 X111.381 Y113.19 E12.32274
G1 X111.365 Y113.196 E12.3233
G1 X111.047 Y113.315 E12.3346
G1 X111.034 Y113.32 E12.33506
G1 X110.726 Y113.461 E12.34633
G1 X110.711 Y113.468 E12.34688
G1 X110.412 Y113.635 E12.35827
G1 X110.398 Y113.644 E12.35882
G1 X110.117 Y113.833 E12.37008
G1 X110.106 Y113.842 E12.37056
G1 X109.839 Y114.051 E12.38184
G1 X109.826 Y114.061 E12.38238
G1 X109.577 Y114.292 E12.39368
G1 X109.566 Y114.303 E12.39419
G1 X109.334 Y114.553 E12.40554
G1 X109.324 Y114.566 E12.40608
G1 X109.115 Y114.833 E12.41736
G1 X109.106 Y114.845 E12.41786
G1 X108.917 Y115.127 E12.42915
G1 X108.908 Y115.141 E12.42971
G1 X108.742 Y115.439 E12.44105
G1 X108.735 Y115.452 E12.44154
G1 X108.593 Y115.759 E12.45279
G1 X108.588 Y115.773 E12.45329
G1 X108.469 Y116.092 E12.46461
G1 X108.463 Y116.108 E12.46518
G1 X108.372 Y116.435 E12.47647
G1 X108.369 Y116.45 E12.47698
G1 X108.303 Y116.783 E12.48827
G1 X108.3 Y116.798 E12.48878
G1 X108.259 Y117.136 E12.5001
G1 X108.258 Y117.153 E12.50067
G1 X108.246 Y117.493 E12.51198
G1 X108.246 Y117.507 E12.51245
G1 X108.258 Y117.847 E12.52376
G1 X108.259 Y117.864 E12.52433
G1 X108.3 Y118.202 E12.53566
G1 X108.303 Y118.217 E12.53616
G1 X108.369 Y118.55 E12.54746
G1 X108.372 Y118.565 E12.54796
G1 X108.463 Y118.892 E12.55925
G1 X108.469 Y118.908 E12.55982
G1 X108.588 Y119.227 E12.57115
G1 X108.593 Y119.241 E12.57164
G1 X108.735 Y119.548 E12.58289
G1 X108.742 Y119.561 E12.58338
G1 X108.908 Y119.859 E12.59473
G1 X108.917 Y119.873 E12.59528
G1 X109.106 Y120.155 E12.60657
G1 X109.115 Y120.167 E12.60707
G1 X109.324 Y120.434 E12.61835
G1 X109.334 Y120.447 E12.61889
G1 X109.566 Y120.697 E12.63024
G1 X109.577 Y120.708 E12.63075
G1 X109.826 Y120.939 E12.64205
G1 X109.839 Y120.949 E12.6426
G1 X110.106 Y121.158 E12.65387
G1 X110.117 Y121.167 E12.65435
G1 X110.398 Y121.356 E12.66561
G1 X110.412 Y121.365 E12.66616
G1 X110.711 Y121.532 E12.67756
G1 X110.726 Y121.539 E12.67811
G1 X111.034 Y121.68 E12.68937
G1 X111.047 Y121.685 E12.68984
G1 X111.365 Y121.804 E12.70113
G1 X111.381 Y121.81 E12.7017
G1 X111.708 Y121.901 E12.71299
G1 X111.723 Y121.904 E12.7135
G1 X112.056 Y121.971 E12.72479
G1 X112.072 Y121.974 E12.72533
G1 X112.412 Y122.014 E12.73672
G1 X112.429 Y122.015 E12.73729
G1 X112.761 Y122.025 E12.74833
G1 X112.767 Y122.025 E12.74853
G1 X114.553 Y122.026 E12.80794
G1 X114.549 Y122.038 E12.80836
G1 X112.519 Y122.034 E12.87588
G1 X112.046 Y121.978 E12.89172
G1 X111.72 Y121.914 E12.90277
G1 X111.372 Y121.812 E12.91483
G1 X111.033 Y121.687 E12.92685
G1 X110.721 Y121.546 E12.93823
G1 X110.396 Y121.366 E12.95059
G1 X110.1 Y121.167 E12.96245
G1 X109.866 Y120.98 E12.97242
G1 X109.558 Y120.702 E12.98622
G1 X109.325 Y120.447 E12.9977
G1 X109.099 Y120.161 E13.00983
G1 X108.907 Y119.873 E13.02134
G1 X108.73 Y119.552 E13.03353
G1 X108.585 Y119.241 E13.04495
G1 X108.471 Y118.929 E13.05599
G1 X108.381 Y118.631 E13.06635
G1 X108.291 Y118.202 E13.08093
G1 X108.25 Y117.85 E13.09271
G1 X108.238 Y117.507 E13.10413
G1 X108.249 Y117.155 E13.11584
G1 X108.25 Y117.15 E13.11601
G1 X108.295 Y116.769 E13.12877
G1 X108.36 Y116.447 E13.1397
G1 X108.47 Y116.071 E13.15273
G1 X108.586 Y115.756 E13.16389
G1 X108.73 Y115.448 E13.1752
G1 X108.91 Y115.122 E13.18759
G1 X109.099 Y114.839 E13.19891
G1 X109.327 Y114.55 E13.21115
G1 X109.562 Y114.292 E13.22276
G1 F2700 E8.22276
G0 F6000 X111.626 Y116.353
G1 F2700 E13.22276
G1 F1200 X111.825 Y116.182 E13.23148
G1 X112.077 Y116.024 E13.24138
G1 X112.394 Y115.922 E13.25245
G1 X112.645 Y115.881 E13.26091
G1 X114.723 Y115.879 E13.33002
G1 X114.723 Y116.409 E13.34765
G1 X114.626 Y116.575 E13.35405
G1 X114.61 Y116.612 E13.35539
G1 X114.482 Y116.989 E13.36863
G1 X114.473 Y117.027 E13.36993
G1 X114.422 Y117.423 E13.38321
G1 X114.421 Y117.464 E13.38457
